flaticon/grooming/lotion-6.svg

<svg xmlns="http://www.w3.org/2000/svg" width="32" height="32" viewBox="0 0 24 24">
    <path d="M22.339844 14.328125C22.3125 10.972656 20.488281 9.03125 18.941406 8 18.769531 7.882812 18.589844 7.777344 18.410156 7.683594 18.382812 6.832031 18.488281 4.65625 20.140625 4.441406 20.539062 4.359375 20.820312 4.039062 20.820312 3.640625L20.820312 2.28125C20.820312 1.960938 20.621094 1.640625 20.339844 1.519531L17.460938.480469C16.539062.160156 15.621094 0 14.660156 0L11.019531 0C10.699219 0 10.421875.28125 10.421875.601562L10.421875.800781 9.421875.800781C9.101562.800781 8.820312 1.078125 8.820312 1.398438L8.820312 3C8.820312 3.320312 9.101562 3.601562 9.421875 3.601562L10.421875 3.601562 10.421875 3.800781C10.421875 4.121094 10.699219 4.398438 11.019531 4.398438L11.195312 4.398438C10.996094 5.972656 9.644531 7.199219 8.019531 7.199219 7.78125 7.199219 7.621094 7.359375 7.621094 7.601562L7.621094 8.800781C7.621094 9.039062 7.78125 9.199219 8.019531 9.199219L9.621094 9.199219C11.226562 9.199219 13.347656 7.511719 14.421875 6.542969L14.421875 7.628906C14.199219 7.734375 13.984375 7.859375 13.78125 8 12.21875 9.039062 10.378906 11 10.378906 14.398438L10.378906 15.160156C10.378906 15.480469 10.421875 15.839844 10.460938 16.199219 10.578125 16.917969 10.78125 17.640625 11.101562 18.480469L12.160156 21.074219 13.339844 24 19.5 24 21.070312 19.878906 21.660156 18.441406C22.019531 17.640625 22.21875 16.878906 22.300781 16.160156 22.339844 15.839844 22.378906 15.480469 22.378906 15.121094L22.378906 14.480469C22.378906 14.421875 22.363281 14.371094 22.339844 14.328125zM9.621094 2.800781L9.621094 1.601562 10.421875 1.601562 10.421875 2.800781zM9.621094 8.398438L8.421875 8.398438 8.421875 8C10.339844 7.800781 11.820312 6.28125 12.019531 4.398438L14.421875 4.398438 14.421875 5.441406C13.5 6.359375 11.101562 8.398438 9.621094 8.398438zM15.21875 5.601562L15.21875 3.601562 11.21875 3.601562 11.21875.800781 14.660156.800781C15.539062.800781 16.378906.960938 17.179688 1.238281L20.019531 2.28125 20.019531 3.640625C17.941406 3.921875 17.621094 6.199219 17.621094 7.359375 17.527344 7.335938 17.433594 7.316406 17.34375 7.300781 16.640625 7.140625 15.914062 7.15625 15.21875 7.335938zM14.300781 8.679688C15.578125 7.800781 17.261719 7.800781 18.578125 8.679688 19.914062 9.582031 21.558594 11.300781 21.617188 14.242188 20.941406 14.894531 20.082031 15.238281 19.179688 15.238281 18.261719 15.238281 17.339844 14.878906 16.660156 14.160156 16.621094 14.121094 16.621094 14.078125 16.578125 14.078125 15.738281 13.28125 14.660156 12.839844 13.539062 12.839844 12.738281 12.839844 11.972656 13.070312 11.3125 13.488281 11.605469 11.039062 13.046875 9.539062 14.300781 8.679688zM18.980469 23.199219L13.898438 23.199219 11.859375 18.160156C11.578125 17.398438 11.378906 16.71875 11.300781 16.078125 11.261719 15.761719 11.261719 15.441406 11.261719 15.121094L11.261719 14.601562C11.898438 14 12.738281 13.640625 13.621094 13.640625 14.539062 13.640625 15.460938 14 16.140625 14.71875 16.179688 14.761719 16.179688 14.800781 16.21875 14.800781 17.058594 15.601562 18.140625 16.039062 19.261719 16.039062 20.101562 16.039062 20.941406 15.800781 21.621094 15.320312 21.617188 15.574219 21.613281 15.828125 21.578125 16.078125 21.5 16.71875 21.339844 17.398438 21.019531 18.160156zM3.621094 2.800781L4.019531 2.800781C4.261719 2.800781 4.421875 2.640625 4.421875 2.398438 4.421875 2.160156 4.261719 2 4.019531 2L3.621094 2C3.378906 2 3.21875 2.160156 3.21875 2.398438 3.21875 2.640625 3.378906 2.800781 3.621094 2.800781zM2.421875 2L2.019531 2C1.78125 2 1.621094 2.160156 1.621094 2.398438 1.621094 2.640625 1.78125 2.800781 2.019531 2.800781L2.421875 2.800781C2.660156 2.800781 2.820312 2.640625 2.820312 2.398438 2.820312 2.160156 2.660156 2 2.421875 2zM6.820312 2C6.578125 2 6.421875 2.160156 6.421875 2.398438 6.421875 2.640625 6.578125 2.800781 6.820312 2.800781L7.21875 2.800781C7.460938 2.800781 7.621094 2.640625 7.621094 2.398438 7.621094 2.160156 7.460938 2 7.21875 2zM5.21875 2.800781L5.621094 2.800781C5.859375 2.800781 6.019531 2.640625 6.019531 2.398438 6.019531 2.160156 5.859375 2 5.621094 2L5.21875 2C4.980469 2 4.820312 2.160156 4.820312 2.398438 4.820312 2.640625 4.980469 2.800781 5.21875 2.800781zM6.738281 1.519531L7.140625 1.601562C7.179688 1.601562 7.179688 1.601562 7.21875 1.601562 7.421875 1.601562 7.578125 1.480469 7.621094 1.28125 7.660156 1.078125 7.5.839844 7.300781.800781L6.898438.71875C6.699219.679688 6.460938.839844 6.421875 1.039062 6.378906 1.238281 6.539062 1.480469 6.738281 1.519531zM5.179688 1.160156L5.578125 1.238281C5.621094 1.238281 5.621094 1.28125 5.660156 1.28125 5.859375 1.28125 6.019531 1.121094 6.058594.921875 6.101562.71875 5.941406.480469 5.738281.441406L5.339844.359375C5.140625.320312 4.898438.480469 4.859375.679688 4.820312.921875 4.980469 1.121094 5.179688 1.160156zM3.621094.800781L4.019531.921875C4.058594.921875 4.058594.921875 4.101562.921875 4.261719.921875 4.460938.800781 4.5.601562 4.539062.398438 4.378906.160156 4.179688.121094L3.78125.0390625C3.578125 0 3.378906.121094 3.300781.359375 3.261719.558594 3.421875.761719 3.621094.800781zM4.019531 3.921875L3.621094 4C3.421875 4.039062 3.261719 4.238281 3.300781 4.480469 3.339844 4.679688 3.5 4.800781 3.699219 4.800781 3.738281 4.800781 3.78125 4.800781 3.78125 4.761719L4.179688 4.679688C4.421875 4.640625 4.539062 4.398438 4.5 4.199219 4.421875 4 4.21875 3.878906 4.019531 3.921875zM5.578125 3.558594L5.179688 3.640625C4.980469 3.679688 4.820312 3.921875 4.859375 4.121094 4.898438 4.320312 5.058594 4.441406 5.261719 4.441406 5.300781 4.441406 5.339844 4.441406 5.339844 4.441406L5.738281 4.359375C5.980469 4.320312 6.101562 4.078125 6.058594 3.878906 6.019531 3.640625 5.78125 3.519531 5.578125 3.558594zM7.621094 3.519531C7.578125 3.28125 7.339844 3.160156 7.140625 3.199219L6.738281 3.28125C6.5 3.320312 6.378906 3.558594 6.421875 3.761719 6.460938 3.960938 6.621094 4.078125 6.820312 4.078125 6.859375 4.078125 6.898438 4.078125 6.898438 4.078125L7.300781 4C7.539062 3.960938 7.660156 3.71875 7.621094 3.519531zM7.621094 3.519531"/>
</svg>

<svg xmlns="http://www.w3.org/2000/svg" width="32" height="32" viewBox="0 0 24 24">
    <path d="M22.34 14.328C22.313 10.973 20.488 9.031 18.94 8a5.285 5.285 0 0 0-.53-.316c-.028-.852.077-3.028 1.73-3.243.398-.082.68-.402.68-.8V2.28c0-.32-.2-.64-.481-.761L17.46.48a8.412 8.412 0 0 0-2.8-.48h-3.64a.614.614 0 0 0-.598.602V.8h-1a.614.614 0 0 0-.602.597V3c0 .32.282.602.602.602h1V3.8c0 .32.277.597.598.597h.175A3.212 3.212 0 0 1 8.02 7.2c-.239 0-.399.16-.399.403V8.8c0 .238.16.398.399.398H9.62c1.606 0 3.727-1.687 4.8-2.656v1.086c-.222.105-.437.23-.64.371-1.562 1.04-3.402 3-3.402 6.398v.762c0 .32.043.68.082 1.04.117.718.32 1.44.64 2.28l1.06 2.594L13.34 24h6.16l1.57-4.121.59-1.438c.36-.8.559-1.562.64-2.28.04-.321.079-.68.079-1.04v-.64a.315.315 0 0 0-.04-.153zM9.62 2.801V1.6h.8v1.2zm0 5.597h-1.2V8a4.042 4.042 0 0 0 3.599-3.602h2.402v1.043c-.922.918-3.32 2.957-4.8 2.957zm5.598-2.796v-2h-4V.8h3.441c.88 0 1.719.16 2.52.437l2.84 1.043v1.36c-2.079.28-2.399 2.558-2.399 3.718a3.919 3.919 0 0 0-.277-.058 4.493 4.493 0 0 0-2.125.035zM14.3 8.68c1.277-.88 2.96-.88 4.277 0 1.336.902 2.98 2.62 3.04 5.562a3.48 3.48 0 0 1-2.438.996c-.918 0-1.84-.36-2.52-1.078-.039-.039-.039-.082-.082-.082-.84-.797-1.918-1.238-3.039-1.238-.8 0-1.566.23-2.226.648.292-2.449 1.734-3.949 2.988-4.808zm4.68 14.52h-5.083l-2.039-5.04c-.28-.762-.48-1.441-.558-2.082-.04-.316-.04-.637-.04-.957v-.52a3.45 3.45 0 0 1 2.36-.96c.918 0 1.84.359 2.52 1.078.039.043.039.082.078.082.84.8 1.922 1.238 3.043 1.238.84 0 1.68-.238 2.36-.719a6.118 6.118 0 0 1-.044.758 7.656 7.656 0 0 1-.558 2.082zm0 0M3.621 2.8h.399c.242 0 .402-.16.402-.402 0-.238-.16-.398-.402-.398H3.62c-.242 0-.402.16-.402.398 0 .243.16.403.402.403zm0 0M2.422 2H2.02c-.239 0-.399.16-.399.398 0 .243.16.403.399.403h.402c.238 0 .398-.16.398-.403C2.82 2.16 2.66 2 2.422 2zm0 0M6.82 2c-.242 0-.398.16-.398.398 0 .243.156.403.398.403h.399c.242 0 .402-.16.402-.403 0-.238-.16-.398-.402-.398zm0 0M5.219 2.8h.402c.238 0 .399-.16.399-.402C6.02 2.16 5.86 2 5.62 2H5.22c-.239 0-.399.16-.399.398 0 .243.16.403.399.403zm0 0M6.738 1.52l.403.082h.078c.203 0 .36-.122.402-.32.04-.204-.121-.442-.32-.481L6.898.719a.437.437 0 0 0-.476.32c-.043.2.117.441.316.48zm0 0M5.18 1.16l.398.078c.043 0 .043.043.082.043.2 0 .36-.16.399-.36a.431.431 0 0 0-.32-.48l-.4-.082C5.142.32 4.9.48 4.86.68a.415.415 0 0 0 .32.481zm0 0M3.621.8l.399.122h.082c.16 0 .359-.121.398-.32.04-.204-.121-.442-.32-.48L3.78.038C3.578 0 3.38.121 3.301.36c-.04.2.12.403.32.442zm0 0M4.02 3.922L3.62 4c-.2.04-.36.238-.32.48.039.2.199.32.398.32.04 0 .082 0 .082-.038l.399-.082c.242-.04.36-.282.32-.48a.43.43 0 0 0-.48-.278zm0 0M5.578 3.559l-.398.082c-.2.039-.36.28-.32.48.038.2.199.32.402.32h.078l.398-.082c.242-.039.364-.28.32-.48-.038-.238-.277-.36-.48-.32zm0 0M7.621 3.52c-.043-.239-.281-.36-.48-.32l-.403.081c-.238.04-.36.278-.316.48.039.2.2.317.398.317h.078L7.301 4c.238-.04.36-.281.32-.48zm0 0"/>
</svg>
